src/icons/svg/search.svg

<svg width="20" height="20" fill="none" xmlns="http://www.w3.org/2000/svg"><path d="M8.9 4.037c-2.13.241-3.934 1.689-4.601 3.693-.232.698-.279.994-.279 1.77 0 .583.011.735.075 1.033.324 1.511 1.119 2.707 2.353 3.539.581.391 1.26.671 2.019.832.47.1 1.521.11 1.983.019.675-.132 1.418-.417 1.944-.745l.246-.153 1.105 1.101c1.073 1.07 1.11 1.103 1.26 1.125.21.03.344-.005.483-.126.24-.211.293-.5.137-.761-.048-.081-.531-.59-1.073-1.13-.542-.541-.985-.995-.985-1.01 0-.014.084-.126.187-.247.557-.657.982-1.575 1.169-2.527.091-.461.081-1.514-.019-1.979-.325-1.52-1.12-2.713-2.364-3.549a5.553 5.553 0 0 0-3.64-.885m1.433 1.246a4.348 4.348 0 0 1 3.404 3.484c.058.321.058 1.145 0 1.466a4.382 4.382 0 0 1-1.203 2.301 4.277 4.277 0 0 1-6.053.017A4.263 4.263 0 0 1 5.408 10.8c-.147-.462-.19-.757-.19-1.3 0-.266.02-.596.045-.733A4.717 4.717 0 0 1 6.003 7c.225-.32.677-.772.997-.997.509-.358 1.22-.653 1.767-.733l.333-.051c.16-.028.985.015 1.233.064" fill="#19191C" fill-rule="evenodd"/></svg>

<svg width="20" height="20" viewBox="0 0 20 20" fill="none" xmlns="http://www.w3.org/2000/svg"><path d="M8.900 4.037 C 6.770 4.278,4.966 5.726,4.299 7.730 C 4.067 8.428,4.020 8.724,4.020 9.500 C 4.020 10.083,4.031 10.235,4.095 10.533 C 4.419 12.044,5.214 13.240,6.448 14.072 C 7.029 14.463,7.708 14.743,8.467 14.904 C 8.937 15.004,9.988 15.014,10.450 14.923 C 11.125 14.791,11.868 14.506,12.394 14.178 L 12.640 14.025 13.745 15.126 C 14.818 16.196,14.855 16.229,15.005 16.251 C 15.215 16.281,15.349 16.246,15.488 16.125 C 15.728 15.914,15.781 15.625,15.625 15.364 C 15.577 15.283,15.094 14.774,14.552 14.234 C 14.010 13.693,13.567 13.239,13.567 13.224 C 13.567 13.210,13.651 13.098,13.754 12.977 C 14.311 12.320,14.736 11.402,14.923 10.450 C 15.014 9.989,15.004 8.936,14.904 8.471 C 14.579 6.951,13.784 5.758,12.540 4.922 C 11.497 4.222,10.153 3.895,8.900 4.037 M10.333 5.283 C 12.061 5.628,13.427 7.026,13.737 8.767 C 13.795 9.088,13.795 9.912,13.737 10.233 C 13.584 11.091,13.154 11.915,12.534 12.534 C 10.856 14.212,8.160 14.220,6.481 12.551 C 5.979 12.052,5.618 11.463,5.408 10.800 C 5.261 10.338,5.218 10.043,5.218 9.500 C 5.218 9.234,5.238 8.904,5.263 8.767 C 5.368 8.178,5.652 7.498,6.003 7.000 C 6.228 6.680,6.680 6.228,7.000 6.003 C 7.509 5.645,8.220 5.350,8.767 5.270 C 8.904 5.250,9.054 5.227,9.100 5.219 C 9.260 5.191,10.085 5.234,10.333 5.283 " fill="#19191C" stroke="none" fill-rule="evenodd"></path></svg>
